X:4A
T:GB/7b/4A The Bonny Bunch of Roses,O-0
%%VWML:GB-7b-4A-0
F:http://www.vwml.org/record/GB/7b/4A
T:Version 2 of 5
C:Mr. Hoare (c. 80), Houghton, Sussex, VI. 07
C:Transcribed by Simon Furey and Lewis Jones
L:1/8
M:4/4
I:linebreak $
K:C
C2 | E2 D2 EFGA | BA G4 G2 | c3 d e2 dc | _B2 d2 !fermata!c2 G2 |$ c3 d e2 d2 | c2 cB G2 E2 | F2 GA BAGF | FE C2 C2 |]

